X: 226
T:Breton Number 3
M:4/4
L:1/8
S:Calico
D:Calico:Celanova Square Breton Set (iii)
Z: Richard Moon
K:G
A2c2A2d2|c/2B/2A Bc AGEG|A2c2A2d2| c/2B/2A Bc A3 E:||!
d2c2 BAGA dedc B3A|GAGF E2ed|c/2B/2A Bc A4:||

